X: 20751
T: Johnny Harling's
R: reel
M: 4/4
K: Dmajor
|:A|~F3 A dFAd|efaf edcd|~B3 B Bcde|dBAF EDB,D|
FA ~A2 AFEF|DB,DG Bdgb|afed ~B2 Aa|afeg fed:|
|:e|fB ~B2 Bfbf|aA ~A2 dBcA|fB ~B2 FB ~B2|Aaec ~B3 c|
dFAd efaz|DB,DG Bdgb|afed ~B3 Aa|afeg fed:|

